!!!COM: Hugo Wolf
!!!CNT: Deutscher
!!!TXO: Deutsche 
!!!OTL: Auf eine Christblume
!!!ONM: No. 20
!!!ODT: 1888/
!!!LYR: Moericke
!!!ENC: Brian Bice
!!!YOR: 65 Songs for voice and piano, International Music Company, 1960
!!NB: Vocal melody and text only encoded.
**kern	**silbe
*clefG2	*
*k[f#c#]	*
*M4/4	*
=1	=1
{2f#	{Toch-
4f#	-ter
4f#	des
=2	=2
4f#	Wald's,
8r	.
8f#	du
[2a	Li-
=3	=3
4.a]	|
8a	-li-
4g	-en-
4f#	-ver-
=4	=4
2f#	-wan-
2e}	-dte,}
=5	=5
4r	.
{4b	{so
4b	lang
4b	von
=6	=6
4b	mir
4b	ge-
[2b-	-such-
=7	=7
4b-]	|
4a	-te,
[2dd	un-
=8	=8
4dd]	|
4cc#	-be-
4cc#	-kann-
4ccn}	-te,}
=9	=9
4r	.
{4d	{im
[2d	frem-
=10	=10
4d]	|
4f#	-den
4g	Kirch-
4a	-hof,
=11	=11
4r	.
2d	o2d'
4d	und
=12	=12
4.c#	win-
8f#	-ter-
2f#}	-lich,}
=13	=13
4r	.
{4f#	{zum
(8a	er-
4g#)	|
8f#	-sten
=14	=14
*k[f#c#g#d#a#e#]	*
4f#	Mal,
8r	.
8a#	o
[2a#	scho2-
=15	=15
4a#]	|
2g#	|
4cc#	-ne,
=16	=16
8r	.
4b	find'
8d#	ich
4d#}	dich!}
4r	.
=19	=19
8r	.
{8c#	{von
8c#	wel-
8d#	-cher
8e#	Hand
8f#	ge-
[4gn	-pflegt
=20	=20
8gn]	|
8gn	du
8.g#	hier
16cc#	er-
4cc#	-blu2h-
4en}	-test,}
=21	=21
8r	.
{8g#	{ich
8.f#	weiss
16en	es
8d#	nicht,
8r	.
8f#	noch
[8f#	wes-
=22	=22
8f#]	|
8g#	-sen
8.an	Grab
16dd#	du
4dd#	hu2-
4f#}	-test;}
=23	=23
8r	.
{8g#	{ist
8gn	es
8gn	in
4cc#	Ju2ng-
4f#	-ling,
=24	=24
8.an	so
16an	ges-
8cc#	-chah
8een	ihm
2dd#}	Heil,}
=25	=25
{4ee-	{ist's
8ee-	ei-
8ee-	-ne
8ddn	Jung-
8b	-frau,
[4cc#	lieb-
=26	=26
8cc#]	|
8a#	-lich
8.g#	fiel
16f#	ihr
2f#}	Teil.}
=27	=27
*k[f#c#]	*
8r	.
{8g	{Im
8g	na2cht'
8g	gen
4g	Hain,
8r	.
8g	von
=28	=28
8f#	Schnee-
8f#	-licht
8f#	u2-
8b-	-ber-
4b-	-brei-
4d}	-tet,}
=29	=29
8r	.
{8f#	{wo
8f#	fromm
8f#	das
8f#	Reh
8f#	an
8f#	dir
8f#	vor-
=30	=30
4.f#	-u2-
8a	-ber
(8a	wei-
4g#)	|
8c#}	-det,}
=31	=31
8r	.
{8a	{bei
8a	der
8a	Ka-
4.a	-pel-
8a	-le,
=32	=32
8a	am
8a	kry-
8.a	-stall'-
16b	-nen
2cc#}	Teich,}
=33	=33
{4ccn	{dort
8b	sucht'
8b	ich
8a	dei-
8b	-ner
[4cc#	Hei-
=34	=34
8cc#]	|
8dd#	-mat
[4cc#	Zau-
8.cc#]	|
16f#	-ber-
4f#}	-reich.}
=36	=36
{2cc#	{Scho2n
4b	bist
8b	du,
8r	.
=37	=37
4a	Kind
4f#	des
[2a	Mon-
=38	=38
4a]	|
4a	-des,
4g	nicht
4f#	der
=39	=39
2f#	Son-
2e#}	-ne,}
=40	=40
4r	.
{4b	{dir
4b-	wa2-
4b-	-re
=41	=41
4a	to2d-
4a	-lich
[2dd	and'-
=42	=42
4dd]	|
4dd	-rer
4.dd	Blu-
8dd	-men
=43	=43
(4dd	Won-
2cc#)	|
4ccn}	-ne,}
=44	=44
4r	.
{4b	{dich
2b	na2hrt,
=45	=45
4r	.
4a	den
4a	keu-
4a	-schen
=46	=46
4a	Leib
4g	voll
[2b	Reif
=47	=47
8b]	|
8r	.
4a	und
[2dd	Duft,
=48	=48
8dd]}	|}
8r	.
{[4dd	{himm-
8dd]	|
4dd	-li-
8dd	-scher
=49	=49
4dd-	Ka2l-
4g-	-te
[2b-	bal-
=50	=50
4b-]	|
4fn	-sam-
[2fn	-su2-
=51	=51
4fn]	|
4fn	-sse
[2dd	Luft.
=52	=52
4dd]}	|}
4r	.
2r	.
=54	=54
*k[b-e-a-]	*
8r	.
{8e-	{In
8f	dei-
8g	-nes
8b-	Bu-
8a-	-sens
[4ee-	gold-
=55	=55
8ee-]	|
8a	-ner
4.g	Fu2l-
8f	-le
[4cc	gru2n-
=56	=56
8cc]	|
4cc}	-det}
{8ff	{ein
8.ff	Wohl-
16b-	-ge-
8b-	-ruch,
8a-	der
=57	=57
8g	sich
8b-	nur
8.a-	kaum
16cc	ver-
8e-	-kun-
8d}	-det;}
4r	.
=58	=58
4r	.
8r	.
{8ee-	{so
8.ee-	duf-
16dd	-te-
4dd	-te,
=59	=59
8r	.
8cc	be-
8cc	-ru2hrt
8ee-	von
8.ee-	En-
16dd	-gels-
4dd}	-hand,}
=60	=60
8r	.
{8dd-	{der
8dd-	be-
8dd-	-ne-
8.ddn	-dei-
16ff	-ten
[4ff	Mut-
=61	=61
8ff]	|
8f	-ter
[4cc	Braut-
8.cc]	|
16dd	-ge-
4dd}	-wand.}
=62	=62
4r	.
{4a-	{Dich
4.a-	wu2r-
8a-	-den,
=63	=63
4r	.
2ee-	mah-
4a-}	-nend}
=64	=64
{4g	{an
4an	das
4.b-	heil'-
8ff	-ge
=65	=65
(4ff	Lei-
2een)	|
4b-}	-den,}
=66	=66
8r	.
{4cc-	{fu2nf
4cc-	Pur-
8cc-	-pur-
8cc-	-tro-
8cc-	-pfen
=67	=67
8cc-	scho2n
8cc-	und
8ee--	ein-
8cc-	-zig
8b--	kle-
8a-}	-den:}
4r	.
=68	=68
*k[b-]	*
8r	.
{8cc	{Doch
(4bn	kind-
8b-)	|
8b-	-lich
8a	zierst
8f	du,
=69	=69
8r	.
4c	um
8bn	die
8.cc	Weih-
16c	-nachts-
4c}	-zeit,}
=70	=70
*k[f#c#]	*
{4e	{licht-
8e	-gru2n
8f#	mit
8g	ei-
8a	-nem
[4b	Hauch
=71	=71
8b]	|
8a#	dein
8.g#	weiss-
16f#	-es
4f#}	Kleid.}
4r	.
=72	=72
4r	.
8.r	.
{16f#	{Der
8g	El-
8g	-fe,
8r	.
16g	der
16g	in
=73	=73
16f#	mit-
16f#	-ter-
16f#	-na2cht'-
16f#	-ger
8f#	Stun-
16f#	-de
16b-	zum
16.b-	Tan-
32d	-ze
8.d	geht
16d	im
[8a	lich-
=74	=74
16.a]	|
32a	-ter-
4a	-hel-
8a	-len
8b#	Grun-
8b#}	-de,}
4r	.
=76	=76
4r	.
16r	.
{16a	{vor
16a	dei-
16a	-ner
12a	mys-
12a	-tis-
12a	-chen
16.a	Glo-
32a	-ri-
8a	-e
=77	=77
8a	steht
8a	er
4dd	scheu,
8ffn	neu-
16ee	-gie-
16dd	-rig
8.a	still
16a	von
=78	=78
4.ccn	fern,
8r	.
8r	.
8e	und
16e	huscht
16r	.
16.r	.
32e	vor-
=79	=79
4gn}	-bei.}
4r	.
2r	.
*-	*-
